epam-assets/icon-sources/18/navigation-logout.svg

<svg width="18" height="18" viewBox="0 0 18 18" fill="none" xmlns="http://www.w3.org/2000/svg">
<g id="18/navigation-logout">
<g id="icon">
<path d="M3.75 15.75C3.3375 15.75 2.98425 15.6033 2.69025 15.3097C2.39675 15.0157 2.25 14.6625 2.25 14.25V11.25H3.75V14.25H14.25V3.75H3.75V6.75H2.25V3.75C2.25 3.3375 2.39675 2.98425 2.69025 2.69025C2.98425 2.39675 3.3375 2.25 3.75 2.25H14.25C14.6625 2.25 15.0157 2.39675 15.3097 2.69025C15.6033 2.98425 15.75 3.3375 15.75 3.75V14.25C15.75 14.6625 15.6033 15.0157 15.3097 15.3097C15.0157 15.6033 14.6625 15.75 14.25 15.75H3.75Z" fill="#6C6F80"/>
<path d="M7.125 12.75L8.175 11.6625L6.2625 9.75H12.75V8.25H6.2625L8.175 6.3375L7.125 5.25L3.375 9L7.125 12.75Z" fill="#6C6F80"/>
</g>
</g>
</svg>

<svg xmlns="http://www.w3.org/2000/svg" width="18" height="18" fill="none" viewBox="0 0 18 18">
  <path fill="#6C6F80" d="M3.75 15.75c-.413 0-.766-.147-1.06-.44a1.446 1.446 0 0 1-.44-1.06v-3h1.5v3h10.5V3.75H3.75v3h-1.5v-3c0-.413.147-.766.44-1.06.294-.293.647-.44 1.06-.44h10.5c.412 0 .766.147 1.06.44.293.294.44.647.44 1.06v10.5c0 .412-.147.766-.44 1.06a1.45 1.45 0 0 1-1.06.44H3.75Z"/>
  <path fill="#6C6F80" d="m7.125 12.75 1.05-1.088L6.262 9.75h6.488v-1.5H6.263l1.912-1.912-1.05-1.088L3.375 9l3.75 3.75Z"/>
</svg>
